X: 305558
T: MISS MANNING'S REEL
C:
%R: reel
B: Elias Howe "The Musician's Companion" Part 3 1844 p.60 #2
S: http://imslp.org/wiki/The_Musician's_Companion_(Howe,_Elias)
S: https://archive.org/stream/firstthirdpartof03howe/#page/66/mode/1up
Z: 2015 John Chambers <jc:trillian.mit.edu>
N: Rest added between bars 4 and 5, to fix the rhythm.
N: The scope of the final repeat symbol is ambiguous; it may be 4 bars or 8 bars.
M: 2/4
L: 1/16
K: D
% - - - - - - - - - - - - - - - - - - - - - - - - -
D2 |\
Dddc- cBBA | afdf ede2 |\
Dddc- cBBA | AFEF D2 :| z2 |\
AdAd BdBd | edef afed |
AdAd BdBd | edef d2 |]| a2 |\
aaaf dfdf | gbfa e2e2 |\
abaf dfdf | Agf[ec] d2 :|
% - - - - - - - - - - - - - - - - - - - - - - - - -


